X: 20131
T: Jimmy's Return
R: reel
M: 4/4
K: Bminor
|:f2Bf dfBd|cAce aecA|1 f2Bf dfBd|cAec dBBA:|2 BcdB cdea|fdec dBB2||
|:Bafd dafd|cAce aecA|1 Bafd dafd|cAec dBBc:|2 BcdB cdea|fdec dBB2||

